src/pos-icons/magnify-plus-cursor.svg

<svg height="24" viewBox="0 0 24 24" width="24" xmlns="http://www.w3.org/2000/svg"><path d="m11 4a7 7 0 0 1 7 7c0 1.5-.5 3-1.39 4.19l.81.81h.58l5 5-2 2-5-5v-.59l-.81-.81c-3.09 2.32-7.48 1.69-9.8-1.4s-1.69-7.48 1.4-9.8c1.21-.9 2.71-1.4 4.21-1.4m-1 3v3h-3v2h3v3h2v-3h3v-2h-3v-3zm-9-6v7l7-7z"/></svg>

<?xml version="1.0" encoding="UTF-8"?><!DOCTYPE svg PUBLIC "-//W3C//DTD SVG 1.1//EN" "http://www.w3.org/Graphics/SVG/1.1/DTD/svg11.dtd"><svg xmlns="http://www.w3.org/2000/svg" xmlns:xlink="http://www.w3.org/1999/xlink" version="1.1" id="mdi-magnify-plus-cursor" width="24" height="24" viewBox="0 0 24 24"><path d="M11,4A7,7 0 0,1 18,11C18,12.5 17.5,14 16.61,15.19L17.42,16H18L23,21L21,23L16,18V17.41L15.19,16.6C12.1,18.92 7.71,18.29 5.39,15.2C3.07,12.11 3.7,7.72 6.79,5.4C8,4.5 9.5,4 11,4M10,7V10H7V12H10V15H12V12H15V10H12V7H10M1,1V8L8,1H1Z" /></svg>
